svgs/light/compress-wide.svg

<svg xmlns="http://www.w3.org/2000/svg" viewBox="0 0 512 512"><!-- Font Awesome Pro 6.0.0-alpha2 by @fontawesome - https://fontawesome.com License - https://fontawesome.com/license (Commercial License) --><path d="M368 224H496C504.844 224 512 216.844 512 208S504.844 192 496 192H384V80C384 71.156 376.844 64 368 64S352 71.156 352 80V208C352 216.844 359.156 224 368 224ZM144 288H16C7.156 288 0 295.156 0 304S7.156 320 16 320H128V432C128 440.844 135.156 448 144 448S160 440.844 160 432V304C160 295.156 152.844 288 144 288ZM496 288H368C359.156 288 352 295.156 352 304V432C352 440.844 359.156 448 368 448S384 440.844 384 432V320H496C504.844 320 512 312.844 512 304S504.844 288 496 288ZM144 64C135.156 64 128 71.156 128 80V192H16C7.156 192 0 199.156 0 208S7.156 224 16 224H144C152.844 224 160 216.844 160 208V80C160 71.156 152.844 64 144 64Z"/></svg>

<svg xmlns="http://www.w3.org/2000/svg" viewBox="0 0 512 512"><!--! Font Awesome Pro 6.3.0 by @fontawesome - https://fontawesome.com License - https://fontawesome.com/license (Commercial License) Copyright 2023 Fonticons, Inc. --><path d="M368 224h128C504.8 224 512 216.8 512 208S504.8 192 496 192H384V80C384 71.16 376.8 64 368 64S352 71.16 352 80v128C352 216.8 359.2 224 368 224zM144 288h-128C7.156 288 0 295.2 0 304S7.156 320 16 320H128v112C128 440.8 135.2 448 144 448S160 440.8 160 432v-128C160 295.2 152.8 288 144 288zM496 288h-128C359.2 288 352 295.2 352 304v128c0 8.844 7.156 16 16 16s16-7.156 16-16V320h112c8.844 0 16-7.156 16-16S504.8 288 496 288zM144 64C135.2 64 128 71.16 128 80V192H16C7.156 192 0 199.2 0 208S7.156 224 16 224h128C152.8 224 160 216.8 160 208v-128C160 71.16 152.8 64 144 64z"/></svg>
